apps/portfolio/src/portfolio/static/assets/icons/pipeline.svg

<svg
  width="800px"
  height="800px"
  viewBox="0 0 48 48"
  fill="#ffffff"
  xmlns="http://www.w3.org/2000/svg"
>
  <g
    id="Layer_2"
    data-name="Layer 2"
  >
    <g
      id="invisible_box"
      data-name="invisible box"
    >
      <rect
        width="48"
        height="48"
        fill="none"
      />
    </g>
    <g
      id="icons_Q2"
      data-name="icons Q2"
    >
      <path
        d="m40 30 a2 2 0 0 0-2 2 v1 h-16 a2 2 0 0 1 0-4 h4 a12 12 0 0 0 0-24 h-16 v-1 a2 2 0 0 0-4 0 v12 a2 2 0 0 0 4 0 v-1 h16
          a2 2 0 0 1 0 4 h-4 a12 12 0 0 0 0 24 h16 v1 a2 2 0 0 0 4 0 v-12 a2 2 0 0 0-2-2 z m-18 9 a8 8 0 0 1 0-16 h4
          a6 6 0 0 0 0-12 h-16 v-2 h16 a8 8 0 0 1 0 16 h-4 a6 6 0 0 0 0 12 h16 v2 z"
      />
    </g>
  </g>
</svg>

<?xml version="1.0" encoding="utf-8"?>
<svg width="800px" height="800px" viewBox="0 0 48 48" xmlns="http://www.w3.org/2000/svg">
  <title>pipeline</title>
  <g id="Layer_2" data-name="Layer 2">
    <g id="invisible_box" data-name="invisible box">
      <rect width="48" height="48" fill="none"/>
    </g>
    <g id="icons_Q2" data-name="icons Q2">
      <path d="M40,30a2,2,0,0,0-2,2v1H22a2,2,0,0,1,0-4h4A12,12,0,0,0,26,5H10V4A2,2,0,0,0,6,4V16a2,2,0,0,0,4,0V15H26a2,2,0,0,1,0,4H22a12,12,0,0,0,0,24H38v1a2,2,0,0,0,4,0V32A2,2,0,0,0,40,30ZM22,39a8,8,0,0,1,0-16h4a6,6,0,0,0,0-12H10V9H26a8,8,0,0,1,0,16H22a6,6,0,0,0,0,12H38v2Z"/>
    </g>
  </g>
</svg>
